!!!!SEGMENT: pl-kk--kk-i-382--022-002_anonim--nro-7-sanctus.krn
!!!cenid: 18xx:1494
!!!COM: Anonim
!!!COM-rismid: pe30004985
!!!CDT:
!!!CNT:
!!!OPR: Nro 7
!!!OTL: Sanctus
!!!OMV: 005
!!!PDT:
!!!AGN: Sacred
!!!SMS-siglum: PL-Kk
!!!SMS-shelfmark: Kk.I.382
!!!SMS-shelfwork: 007-005 M
!!!SMS-variant:
!!!SMS-altvar:
!!!NIFC-rismid: 1001139139
!!!URL-scan: http://repozytorium.nifc.pl/skany/pl-kk-nut--i-382
!!!ONB-nifc: UWAGA: obsada: S/T 1, T 2, A/B 1, B 2. Sanctus, Osanna + Benedictus. S (T 1), A (B 1), T 2, B 2; S (T 1): skan 0021; A (B 1): skan 0167; T 2: skan 0093; B 2: skan 0238
**kern	**text	**dynam	**kern	**text	**kern	**text	**kern	**text
*part4	*part4	*part4	*part3	*part3	*part2	*part2	*part1	*part1
*staff4	*staff4	*	*staff3	*staff3	*staff2	*staff2	*staff1	*staff1
*Ibass	*	*	*Itenor	*	*Ialto	*	*Itenor	*
*I"Basso II	*	*	*I"Tenore II	*	*I"Alto vel Basso I	*	*I"Soprano vel Tenore I.	*
*I'B. II	*	*	*I'T. II	*	*I'A. vel B. I	*	*I'S. vel T. I	*
*clefF4	*	*	*clefC4	*	*clefC3	*	*clefC1	*
*k[b-]	*	*	*k[b-]	*	*k[b-]	*	*k[b-]	*
*F:	*	*	*F:	*	*F:	*	*F:	*
*M4/4	*	*	*M4/4	*	*M4/4	*	*M4/4	*
*met(c)	*	*below	*met(c)	*	*met(c)	*	*met(c)	*
=1	=1	=1	=1	=1	=1	=1	=1	=1
!LO:TX:rj:a:t=in F.	!	!	!LO:TX:rj:a:t=in F.	!	!	!	!LO:SIC:o:s:v:=all\right	!
[1F\	San-	.	1c\	Sanc-	(4a\	San-	(4cc\	San-
.	.	.	.	.	4g\	.	4b-\	.
.	.	.	.	.	4f\	.	4a\	.
.	.	.	.	.	4g\	.	4b-\)	.
=2	=2	=2	=2	=2	=2	=2	=2	=2
4F\]	.	.	1c\	-tus	4a\	.	(4cc\	-ctus
4B-\	.	.	.	.	4b-\	.	4dd\	.
4c\	.	.	.	.	4a\	.	4cc\	.
4C/	-ctus	.	.	.	4g\	.	4b-\)	.
=3	=3	=3	=3	=3	=3	=3	=3	=3
*	*	*	*	*	*2\right	*	*2\right	*
4F\	San-	.	1c\	sanc-	2f\	.	(2a\	san-
4D\	.	.	.	.	.	.	.	.
4BB-/	.	.	.	.	2e\)	.	2g\)	.
4C/	.	.	.	.	.	.	.	.
=4	=4	=4	=4	=4	=4	=4	=4	=4
1F\	-ctus	.	1c\	-tus	1f\	-ctus	1a\	-ctus
=5	=5	=5	=5	=5	=5	=5	=5	=5
*2\right	*	*	*	*	*	*	*	*
2.F\	San-	.	(4f\	San-	(4a\	San-	(4ff\	San-
.	.	.	4e\	.	4g\	.	4ee\	.
.	.	.	4d\	.	4f\	.	4dd\	.
4F#X\	-ctus	.	4c\	.	4e\	.	4cc\)	.
=6	=6	=6	=6	=6	=6	=6	=6	=6
4G\	San-	.	4Bn\	.	4d\	.	(4bn\	-ctus
4F#X\	.	.	4c\	.	4e\)	.	4cc\	.
4G\	.	.	4B\	.	(4d\	-ctus	4b\	.
4F#\	.	.	4A\	.	4c\)	.	4a\)	.
!	!	!	!	!	!LO:LB:g=original	!	!LO:LB:g=original	!
=7	=7	=7	=7	=7	=7	=7	=7	=7
1G\	.	.	4G/	.	4Bn/	San-	(4g\	san-
.	.	.	4A/)	.	4c/	.	4a\	.
.	.	.	2G/	.	4d/	.	4bn\	.
.	.	.	.	.	4e/	.	4cc\)	.
=8	=8	=8	=8	=8	=8	=8	=8	=8
1G\	-ctus	.	1Bn\	-ctus	1f\	-ctus	1dd\	-ctus
!LO:LB:g=original	!	!	!	!	!	!	!	!
=9	=9	=9	=9	=9	=9	=9	=9	=9
(4G\	Do-	.	4Bn\	Do-	2f\	Do-	2dd\	Do-
4A\)	.	.	4c\	.	.	.	.	.
4Bn\	-mi-	.	4d\	-mi-	4f\	-mi-	4dd\	-mi-
4G\	-nus	.	4B\	-nus	4f\	-nus	4dd\	-nus
=10	=10	=10	=10	=10	=10	=10	=10	=10
*	*	*	*2\right	*	*	*	*	*
(4c\	De-	.	2c\	De-	2g\	De-	2ee\	De-
4G\)	.	.	.	.	.	.	.	.
(4E\	-us	.	2c\	-us	2g\	-us	2ee\	-us
4C\)	.	.	.	.	.	.	.	.
!	!	!	!LO:LB:g=original	!	!	!	!	!
=11	=11	=11	=11	=11	=11	=11	=11	=11
4C/	De-	.	2c\	De-	2g\	De-	2ee\	De-
4D/	.	.	.	.	.	.	.	.
4E\	-us	.	2c\	-us	2g\	-us	2ee\	-us
4C/	.	.	.	.	.	.	.	.
=12	=12	=12	=12	=12	=12	=12	=12	=12
4F\	De-	.	4A/	sa-	2.f\	Sa-	2.cc\	sa-
4A\	-us	.	4F/	.	.	.	.	.
4B-\	sa-	.	2G/	-ba-	.	.	.	.
4Bn\	-ba-	.	.	.	4f\	-ba-	4dd\	-ba-
=13	=13	=13	=13	=13	=13	=13	=13	=13
1c\	-ot.	.	1G/	-ot.	1e\	-ot.	1cc\	-oth
!	!	!	!	!	!LO:LB:g=original	!	!	!
=14|!	=14	=14	=14|!	=14	=14||	=14	=14	=14
(4c\	Ple-	.	2c\	Ple-	2g\	Ple-	2ee\	Ple-
4G\)	.	.	.	.	.	.	.	.
4E\	-ni	.	4c\	-ni	4e\	-ni	4cc\	-ni
4C/	sunt	.	4c\	sunt	4g\	sunt	4ee\	sunt
!LO:LB:g=original	!	!	!	!	!	!	!LO:LB:g=original	!
=15	=15	=15	=15	=15	=15	=15	=15	=15
(4F\	ce-	.	2A\	ce-	2f\	ce-	2cc\	ce-
4c\)	.	.	.	.	.	.	.	.
4A\	-li	.	4A\	-li	4f\	-li	4cc\	-li
4F\	et	.	4c\	et	4a\	et	4cc\	et
=16	=16	=16	=16	=16	=16	=16	=16	=16
2C/	ter-	.	1c\	ter-	(2g\	ter-	(2ee\	ter-
2F\	.	.	.	.	2a\)	.	2ff\)	.
=17	=17	=17	=17	=17	=17	=17	=17	=17
1C/	-ra	.	1c\	-ra	1g\	-ra	1ee\	-ra
=18	=18	=18	=18	=18	=18	=18	=18	=18
2C/	glo-	.	1c\	glo-	(4g\	glo-	(4ee\	glo-
.	.	.	.	.	4a\)	.	4ff\)	.
4E\	-ri-	.	.	.	4b-\	-ri-	4gg\	-ri-
4C/	-a	.	.	.	4g\	-a	4ee\	-a
=19	=19	=19	=19	=19	=19	=19	=19	=19
(4F\	glo-	.	4A\	.	2a\	glo-	2ff\	glo-
4G\)	.	.	4B-X\	.	.	.	.	.
4A\	-ri-	.	4c\	-ri-	4a\	-ri-	4ff\	-ri-
4F\	-a	.	4A\	-a	4a\	-a	4ff\	-a
=20	=20	=20	=20	=20	=20	=20	=20	=20
2C/	glo-	.	2c\	glo-	2g\	glo-	2ee\	glo-
4F\	-ri-	.	4c\	-ri-	4a\	-ri-	4ff\	-ri-
4F\	-a	.	4c\	-a	4a\	-a	4ff\	-a
!	!	!	!LO:LB:g=original	!	!LO:LB:g=original	!	!	!
=21	=21	=21	=21	=21	=21	=21	=21	=21
1C/	tu-	.	1c\	tu-	1g\	tu-	(2ff\	tu-
.	.	.	.	.	.	.	2ee\)	.
=22	=22	=22	=22	=22	=22	=22	=22	=22
1F\	-a.	.	1c\	-a.	1a\	-a	1ff\	-a.
!LO:LB:g=original	!	!	!	!	!	!	!	!
=23|!	=23|!	=23|!	=23|!	=23|!	=23|!	=23|!	=23|!	=23|!
*clefF4	*	*	*	*	*	*	*clefC1	*
*k[b-]	*	*	*	*	*	*	*k[b-]	*
*M4/4	*	*	*M4/4	*	*M4/4	*	*M4/4	*
*met(c)	*	*	*met(c)	*	*met(c)	*	*met(c)	*
!	!	!	!	!	!	!	!LO:TX:rj:b:t=Osana.	!
4F\	O-	.	4A\	O-	1a\	O-	2cc\	O-
4G\	.	.	4B-\	.	.	.	.	.
4A\	.	.	4c\	.	.	.	4cc\	-san-
4G\	.	.	4B-\	.	.	.	4cc\	-na
=24	=24	=24	=24	=24	=24	=24	=24	=24
4F\	-san-	.	4.A\	-san-	4.a\	-san-	(4.cc\	in
4B-\	-na	.	.	.	.	.	.	.
.	.	.	8B-\	-na	8g\	-na	8b-\)	.
4c\	in	.	4c\	in	4f\	in	(4a\	ex-
4C/	ex-	.	4c\	ex-	4g\	ex-	4b-\)	.
=25	=25	=25	=25	=25	=25	=25	=25	=25
4F\	-cel-	.	4c\	-cel-	4f\	-cel-	4a\	-cel-
4C/	-sis	.	4c\	-sis	4e\	-sis	4g\	-sis
4r	.	.	4r	.	4r	.	4r	.
4F\	o-	.	4A\	o-	4a\	o-	4cc\	o-
=26	=26	=26	=26	=26	=26	=26	=26	=26
4F\	-san-	.	4.A\	-san-	4.a\	-san-	4.cc\	-san-
4BB-/	-na	.	.	.	.	.	.	.
.	.	.	8B-\	-na	8g\	-na	8b-\	-na
4C/	in	.	4c\	in	4f\	in	4a\	in
4C/	ex-	.	4c\	ex-	4g\	ex-	4b-\	ex-
!	!	!	!	!	!LO:LB:g=original	!	!	!
=27	=27	=27	=27	=27	=27	=27	=27	=27
4F\	-cel-	.	4c\	-cel-	4f\	-cel-	4a\	-cel-
4C/	-sis	.	4c\	-sis	4e\	-sis	4g\	-sis
!	!	!	!	!	!	!	!LO:LB:g=original	!
4r	.	.	4r	.	4r	.	4r	.
4F\	o-	.	4A\	o-	4f\	o-	4a\	o-
=28	=28	=28	=28	=28	=28	=28	=28	=28
4F\	-san-	.	4A\	-san-	1f\	-san-	1cc\	-san-
4G\	.	.	4B-\	.	.	.	.	.
4A\	.	.	4c\	.	.	.	.	.
4F\	.	.	4A\	.	.	.	.	.
!LO:LB:g=original	!	!	!LO:LB:g=original	!	!	!	!	!
=29	=29	=29	=29	=29	=29	=29	=29	=29
2B-\	-na	.	2B-\	-na	2f\	-na	2dd\	-na
4r	.	.	4r	.	4r	.	4r	.
4G\	o-	.	4Bn\	o-	4g\	o-	4dd\	o-
=30	=30	=30	=30	=30	=30	=30	=30	=30
4G\	-san-	.	4Bn\	-san-	1g\	-san-	1dd\	-san-
4A\	.	.	4c\	.	.	.	.	.
4Bn\	.	.	4d\	.	.	.	.	.
4G\	.	.	4B\	.	.	.	.	.
=31	=31	=31	=31	=31	=31	=31	=31	=31
2c\	-na	.	2c\	-na	2g\	-na	2ee\	-na
4r	.	.	4r	.	4r	.	4r	.
4C/	o-	.	4e\	o-	4g\	o-	4cc\	o-
=32	=32	=32	=32	=32	=32	=32	=32	=32
(4C/	-san-	.	2e\	-san-	4g\	-san-	2.cc\	-san-
4D/)	.	.	.	.	4a\	-na	.	.
(4E\	-na	.	2e\	-na	4b-\	in	.	.
4C\)	.	.	.	.	4g\	ex-	4cc\	-na
!	!	!	!	!	!LO:LB:g=original	!	!	!
=33	=33	=33	=33	=33	=33	=33	=33	=33
(4F\	in	.	(4f\	in	4a\	-cel-	(4cc\	in
4G\)	.	.	4e\)	.	4g\	-sis	4b-\)	.
(4A\	ex-	.	2c\	ex-	4f\	in	(4a\	ex-
4B-X\)	.	.	.	.	4g\	ex-	4b-\)	.
=34	=34	=34	=34	=34	=34	=34	=34	=34
(2c\	-cel-	.	1c\	-cel-	(2f\	-cel-	(2a\	-cel-
2C/)	.	.	.	.	2e\)	.	2g\)	.
=35	=35	=35	=35	=35	=35	=35	=35	=35
1F\	-sis.	.	1c\	-sis.	1f\	-sis.	1a\	-sis
!LO:PB:g=original	!	!	!LO:LB:g=original	!	!LO:LB:g=original	!	!LO:LB:g=original	!
=36|!	=36|!	=36|!	=36|!	=36|!	=36|!	=36|!	=36|!	=36|!
*	*	*	*	*	*clefC3	*	*clefC1	*
*	*	*	*	*	*k[b-]	*	*k[b-]	*
*M4/4	*	*	*M4/4	*	*M4/4	*	*M4/4	*
*met(c)	*	*	*met(c)	*	*met(c)	*	*met(c)	*
!LO:TX:a:t=Solo.	!	!	!	!	!	!	!	!
!LO:TX:rj:b:t=Benedictus	!	!	!LO:TX:rj:b:t=Benedictus.	!	!LO:TX:rj:b:t=Benedictus	!	!LO:TX:rj:b:t=Benedictus	!
!LO:TX:a:t=in F.	!	!LO:DY:rj	!	!	!	!	!LO:TX:a:t=1.	!
2.c\	Be-	p	2.c\	Be-	2.c\	Be-	1r	.
4c\	-ne-	.	4c\	-ne-	4c\	-ne-	.	.
=37	=37	=37	=37	=37	=37	=37	=37	=37
2F\	-dic-	.	2F/	-dic-	2f\	-dic-	2.f/	Be-
2F\	-tus	.	2F/	-tus	4f\	-tus	.	.
.	.	.	.	.	4f\	qui	4f/	-ne-
=38	=38	=38	=38	=38	=38	=38	=38	=38
!	!	!LO:DY:rj	!	!	!	!	!	!
2.C/	Be-	f	2c\	Be-	2e\	ve-	2cc\	-dic-
.	.	.	2c\	-ne-	4e\	-nit	4cc\	-tus
4C/	-ne-	.	.	.	4e\	in	4cc\	qui
=39	=39	=39	=39	=39	=39	=39	=39	=39
2F\	-dic-	.	2c\	-dic-	2a\	no-	2cc\	ve-
4F\	-tus	.	4c\	-tus	4a\	-mi-	4cc\	-nit
4F\	qui	.	4c\	qui	4a\	-ne	4cc\	qui
!	!	!	!	!	!LO:LB:g=original	!	!	!
=40	=40	=40	=40	=40	=40	=40	=40	=40
(4E\	ve-	.	(4c\	ve-	4g\	Do-	(4cc\	ve-
4D\)	.	.	4d\)	.	4g\	-mi-	4dd\)	.
2C/	-nit	.	2e\	-nit	2g\	-ni	2ee\	-nit
=41	=41	=41	=41	=41	=41	=41	=41	=41
1C/	in	.	2r	.	2r	.	2r	.
.	.	.	(4e\	in	(4g\	qui	(4ee\	in
.	.	.	4d\)	.	4f\)	.	4dd\)	.
!LO:LB:g=original	!	!	!	!	!	!	!LO:LB:g=original	!
=42	=42	=42	=42	=42	=42	=42	=42	=42
2C/	no-	.	(4c\	no-	(4e\	ve-	(4cc\	no-
.	.	.	4d\)	.	4f\)	.	4dd\)	.
4C/	-mi-	.	4e\	-mi-	4g\	-nit	4ee\	-mi-
4F\	-ne	.	4f\	-ne	4a\	in	4ff\	-ne
!	!	!	!LO:LB:g=original	!	!	!	!	!
=43	=43	=43	=43	=43	=43	=43	=43	=43
(4G\	Do-	.	2.g\	Do-	2.b-\	no-	2.gg\	Do-
4F\)	.	.	.	.	.	.	.	.
(4E\	-mi-	.	.	.	.	.	.	.
4C\)	.	.	4g\	-mi-	4b-\	-mi-	4gg\	-mi-
=44	=44	=44	=44	=44	=44	=44	=44	=44
2F\	-ni	.	2f\	-ni	2a\	-ne	2ff\	-ni
2F\	in	.	2f\	in	2a\	in	2ff\	qui
=45	=45	=45	=45	=45	=45	=45	=45	=45
2F\	no-	.	2f\	no-	2a\	no-	2ff\	ve-
4C/	-mi-	.	4e\	-mi-	4g\	-mi-	4ee\	-nit
4F\	-ne	.	4d\	-ne	4f\	-ne	4dd\	in
!	!	!	!	!	!LO:LB:g=original	!	!	!
=46	=46	=46	=46	=46	=46	=46	=46	=46
2C/	no-	.	2e\	no-	2g\	no-	2ee\	no-
4BBn/	-mi-	.	4d\	-mi-	4f\	-mi-	4dd\	-mi-
4C/	-ne	.	4c\	-ne	4e\	-ne	4cc\	-ne
=47	=47	=47	=47	=47	=47	=47	=47	=47
2.G\	Do-	.	2d\	Do-	2f\	Do-	(2dd\	Do-
.	.	.	(4c\	-mi-	(4e\	-mi-	4cc\)	.
4GG/	-mi-	.	4Bn\)	.	4d\)	.	4bn\	-mi-
=48	=48	=48	=48	=48	=48	=48	=48	=48
2C/	-ni	.	2c\	-ni,	2e\	-ni	2cc\	-ni
2r	.	.	2r	.	(4c\	qui	2r	.
.	.	.	.	.	4d\)	.	.	.
!	!	!	!LO:TX:b:t=V&colon;S&colon;	!	!	!	!	!
!LO:LB:g=original	!	!	!LO:PB:g=original	!	!	!	!LO:LB:g=original	!
=49	=49	=49	=49	=49	=49	=49	=49	=49
2r	.	.	(4c\	qui	(4e\	ve-	(4cc\	in
.	.	.	4d\	.	4f\)	.	4dd\	.
2C/	in	.	4e\	.	4g\	-nit	4ee\	.
.	.	.	4f\)	.	4a\	in	4ff\)	.
=50	=50	=50	=50	=50	=50	=50	=50	=50
(4C/	no-	.	(4g\	ve-	(4b-\	no-	(4gg\	no-
4D/)	.	.	4f\)	.	4a\)	.	4ff\)	.
4E\	-mi-	.	4e\	-nit	4g\	-mi-	4ee\	-mi-
4C/	-ne	.	4g\	in	4b-\	-ne	4gg\	-ne
!	!	!	!	!	!LO:LB:g=original	!	!	!
=51	=51	=51	=51	=51	=51	=51	=51	=51
(4F\	no-	.	(4f\	no-	2a\	no-	(4ff\	no-
4A\)	.	.	4c\)	.	.	.	4cc\)	.
4E\	-mi-	.	4B-\	-mi-	4g\	-mi-	4b-X\	-mi-
4F\	-ne	.	4A\	-ne	4f\	-ne	4a\	-ne
=52	=52	=52	=52	=52	=52	=52	=52	=52
2.C/	Do-	.	2A\	Do-	2f\	Do-	2a\	Do-
.	.	.	2G/	-mi-	2e\	-mi-	2g\	-mi-
4C/	-mi-	.	.	.	.	.	.	.
=53	=53	=53	=53	=53	=53	=53	=53	=53
2F\	-ni	.	2A\	-ni	2f\	-ni	2a\	-ni
2r	.	.	2r	.	(4c\	qui	2r	.
.	.	.	.	.	4d\)	.	.	.
=54	=54	=54	=54	=54	=54	=54	=54	=54
2r	.	.	(4c\	qui	(4e\	ve-	(4cc\	qui
.	.	.	4d\	.	4f\)	.	4dd\	.
2C/	in	.	4e\	.	4g\	-nit	4ee\	.
.	.	.	4f\)	.	4a\	in	4ff\)	.
=55	=55	=55	=55	=55	=55	=55	=55	=55
(4C/	no-	.	(4g\	ve-	(4b-\	no-	(4gg\	ve-
4D/)	.	.	4f\)	.	4a\)	.	4ff\)	.
4E\	-mi-	.	4e\	-nit	4g\	-mi-	4ee\	-nit
4C/	-ne	.	4g\	in	4b-\	-ne	4gg\	in
!	!	!	!	!	!LO:TX:b:t=V&colon;S&colon;	!	!LO:TX:b:t=V&colon;S&colon;	!
!LO:LB:g=original	!	!	!	!	!LO:PB:g=original	!	!LO:PB:g=original	!
=56	=56	=56	=56	=56	=56	=56	=56	=56
(4F\	no-	.	(4f\	no-	2a\	no-	4ff\	no-
4A\)	.	.	4c\)	.	.	.	4cc\	.
4E\	-mi-	.	4B-\	-mi-	4g\	-mi-	4b-\	-mi-
4F\	-ne	.	4A\	-ne	4f\	-ne	4a\	-ne
!	!	!	!LO:LB:g=original	!	!	!	!	!
=57	=57	=57	=57	=57	=57	=57	=57	=57
2.C/	Do-	.	2A/	Do-	2f\	Do-	2a\	Do-
.	.	.	2G/	-mi-	2e\	-mi-	2g\	-mi-
4C/	-mi-	.	.	.	.	.	.	.
=58	=58	=58	=58	=58	=58	=58	=58	=58
1F\	-ni.	.	1A\	-ni.	1f\	-ni	1a\	-ni.
=59|!	=59|!	=59|!	=59|!	=59|!	=59|!	=59|!	=59|!	=59|!
*M4/4	*	*	*M4/4	*	*M4/4	*	*M4/4	*
*met(c)	*	*	*met(c)	*	*met(c)	*	*met(c)	*
!	!	!	!	!	!	!	!LO:TX:b:t=Osanna Da Capo.	!
4F\	O-	.	4A\	O-	1a\	O-	2cc\yy	O-
4G\	.	.	4B-\	.	.	.	.	.
4A\	.	.	4c\	.	.	.	4cc\yy	-san-
4G\	.	.	4B-\	.	.	.	4cc\yy	-na
=60	=60	=60	=60	=60	=60	=60	=60	=60
4F\	-san-	.	4.A\	-san-	4.a\	-san-	(4.cc\yy	in
4B-\	-na	.	.	.	.	.	.	.
.	.	.	8B-\	-na	8g\	-na	8b-\)yy	.
4c\	in	.	4c\	in	4f\	in	(4a\yy	ex-
4C/	ex-	.	4c\	ex-	4g\	ex-	4b-\)yy	.
=61	=61	=61	=61	=61	=61	=61	=61	=61
4F\	-cel-	.	4c\	-cel-	4f\	-cel-	4a\yy	-cel-
4C/	-sis	.	4c\	-sis	4e\	-sis	4g\yy	-sis
4r	.	.	4r	.	4r	.	4ryy	.
4F\	o-	.	4A\	o-	4a\	o-	4cc\yy	o-
!LO:LB:g=original	!	!	!	!	!LO:LB:g=original	!	!	!
=62	=62	=62	=62	=62	=62	=62	=62	=62
4F\	-san-	.	4.A\	-san-	4.a\	-san-	4.cc\yy	-san-
4BB-/	-na	.	.	.	.	.	.	.
.	.	.	8B-\	-na	8g\	-na	8b-\yy	-na
4C/	in	.	4c\	in	4f\	in	4a\yy	in
4C/	ex-	.	4c\	ex-	4g\	ex-	4b-\yy	ex-
=63	=63	=63	=63	=63	=63	=63	=63	=63
4F\	-cel-	.	4c\	-cel-	4f\	-cel-	4a\yy	-cel-
4C/	-sis	.	4c\	-sis	4e\	-sis	4g\yy	-sis
!	!	!	!	!	!	!	!LO:LB:g=original	!
4r	.	.	4r	.	4r	.	4ryy	.
4F\	o-	.	4A\	o-	4f\	o-	4a\yy	o-
!	!	!	!LO:LB:g=original	!	!	!	!	!
=64	=64	=64	=64	=64	=64	=64	=64	=64
4F\	-san-	.	4A\	-san-	1f\	-san-	1ccyy\	-san-
4G\	.	.	4B-\	.	.	.	.	.
4A\	.	.	4c\	.	.	.	.	.
4F\	.	.	4A\	.	.	.	.	.
=65	=65	=65	=65	=65	=65	=65	=65	=65
2B-\	-na	.	2B-\	-na	2f\	-na	2dd\yy	-na
4r	.	.	4r	.	4r	.	4ryy	.
4G\	o-	.	4Bn\	o-	4g\	o-	4dd\yy	o-
=66	=66	=66	=66	=66	=66	=66	=66	=66
4G\	-san-	.	4Bn\	-san-	1g\	-san-	1ddyy\	-san-
4A\	.	.	4c\	.	.	.	.	.
4Bn\	.	.	4d\	.	.	.	.	.
4G\	.	.	4B\	.	.	.	.	.
=67	=67	=67	=67	=67	=67	=67	=67	=67
2c\	-na	.	2c\	-na	2g\	-na	2ee\yy	-na
4r	.	.	4r	.	4r	.	4ryy	.
4C/	o-	.	4e\	o-	4g\	o-	4cc\yy	o-
!LO:LB:g=original	!	!	!	!	!LO:LB:g=original	!	!	!
=68	=68	=68	=68	=68	=68	=68	=68	=68
(4C/	-san-	.	2e\	-san-	4g\	-san-	2.cc\yy	-san-
4D/)	.	.	.	.	4a\	-na	.	.
4E\	-na	.	2e\	-na	4b-\	in	.	.
4C/	.	.	.	.	4g\	ex-	4cc\yy	-na
=69	=69	=69	=69	=69	=69	=69	=69	=69
4F\	in	.	(4f\	in	4a\	-cel-	(4cc\yy	in
4G\	.	.	4e\)	.	4g\	-sis	4b-\)yy	.
4A\	ex-	.	2c\	ex-	4f\	in	(4a\yy	ex-
4B-\	.	.	.	.	4g\	ex-	4b-\)yy	.
=70	=70	=70	=70	=70	=70	=70	=70	=70
2c\	-cel-	.	1c\	-cel-	2f\	-cel-	(2a\yy	-cel-
2C/	.	.	.	.	2e\	.	2g\)yy	.
=71	=71	=71	=71	=71	=71	=71	=71	=71
1F\	-sis.	.	1c\	-sis.	1f\	-sis.	1ayy\	-sis
==	==	==	==	==	==	==	==	==
*-	*-	*-	*-	*-	*-	*-	*-	*-
!!!system-decoration: [(s1,s2,s3,s4)]
!!!RDF**dynam: p = "p."
!!!RDF**dynam: f = "f."
!!!EED: Leszek Kubiak
!!!EST: 2021-02-08
!!!ENC: Mateusz Solarz
!!!END: 2021-01-28
